!!!COM: Schiørring, Niels
!!!CDT: 1743-1798
!!!OPR@@DA: Choral-Bog
!!!ONM: 42
!!!OTL@@DA: Jeg beder dig min Herre og Gud!
**kern	**fb	**kern	**kern	**kern	**kern	**kern	**kern	**kern
*part6	*part6	*part6	*part5	*part5	*part4	*part3	*part2	*part1
*staff8	*	*staff7	*staff6	*staff5	*staff4	*staff3	*staff2	*staff1
*clefF4	*	*clefC1	*clefF4	*clefC1	*clefF4	*clefC4	*clefC3	*clefC1
*mclefF4	*	*mclefG2	*mclefF4	*mclefG2	*mclefF4	*mclefGv2	*mclefG2	*mclefG2
*k[]	*	*k[]	*k[]	*k[]	*k[]	*k[]	*k[]	*k[]
*M4/4	*	*M4/4	*M4/4	*M4/4	*M4/4	*M4/4	*M4/4	*M4/4
*met(c)	*	*met(c)	*met(c)	*met(c)	*met(c)	*met(c)	*met(c)	*met(c)
*MM180	*	*MM180	*MM180	*MM180	*MM180	*MM180	*MM180	*MM180
*	*	*	*^	*^	*	*	*	*
=1	=1	=1	=1	=1	=1	=1	=1	=1	=1	=1
2D	.	2a	2ryy	2D	2d	2f	2D	2d	2f	2a
=2	=2	=2	=2	=2	=2	=2	=2	=2	=2	=2
2AA	.	2a	1ryy	2AA	2c	2e	2AA	2c	2e	2a
2BB	6	2g	.	2BB	2d	2d	2BB	2d	2d	2g
=3	=3	=3	=3	=3	=3	=3	=3	=3	=3	=3
2C	.	2e	2G	2C	2e	2c	2C	2G	2c	2e
2C#X	5	2g	2A	2C#X	2g	2e	2C#X	2A	2e	2g
=4	=4	=4	=4	=4	=4	=4	=4	=4	=4	=4
2D	.	2f	2.A	2D	2f	2d	2D	2A	2d	2f
2AA	#	2e	.	2AA	2e	2c#X	2AA	(4A	2c#X	2e
.	.	.	4G	.	.	.	.	4G)	.	.
=5	=5	=5	=5	=5	=5	=5	=5	=5	=5	=5
2D	.	2d	2F	2D	2d	2d	2D	2F	2d	2d
4F	6	2d	2A	4F	2d	2d	(4F	2A	2d	2d
4E	.	.	.	4E	.	.	4E)	.	.	.
=6	=6	=6	=6	=6	=6	=6	=6	=6	=6	=6
2D	.	2f	2A	2D	2f	2d	2D	2A	2d	2f
2C	.	2g	2c	2C	2g	2e	2C	2c	2e	2g
=7	=7	=7	=7	=7	=7	=7	=7	=7	=7	=7
2F	.	2a	2c	2F	2a	2f	2F	2c	2f	2a
2C	6	2cc	[2A	2C	2cc	2e	2C	[2A	2e	2cc
=8	=8	=8	=8	=8	=8	=8	=8	=8	=8	=8
2D	6 5	1b	2A]	2D	1b	2f	(2D	2A]	(2f	1b
2E	#	.	4G#X	2E	.	2e	2E)	2G#X	4e	.
.	.	.	4d	.	.	.	.	.	4d)	.
=9	=9	=9	=9	=9	=9	=9	=9	=9	=9	=9
2AA	.	2a	2ryy	2AA	2c	2e	2AA	2A	2c	2a
=10:|!	=10:|!	=10:|!	=10:|!	=10:|!	=10:|!	=10:|!	=10:|!	=10:|!	=10:|!	=10:|!
2GG#X	5	2dd	2ryy	2GG#X	2e	2b	2GG#X	2B	2e	2dd
=11	=11	=11	=11	=11	=11	=11	=11	=11	=11	=11
2AA	.	2cc	2ryy	2AA	2e	2a	2AA	2A	2e	2cc
2E	8 #	2b	4e	2E	2b	2g#X	2E	2G#X	(4e	2b
.	7	.	4d	.	.	.	.	.	4d)	.
=12	=12	=12	=12	=12	=12	=12	=12	=12	=12	=12
2F	.	2a	2.c	2F	2a	2a	2F	2A	2c	2a
2C	8	2g	.	2C	2gni	2e	2C	(4c	2e	2g
.	-7	.	4B-X	.	.	.	.	4B-X)	.	.
=13	=13	=13	=13	=13	=13	=13	=13	=13	=13	=13
2C#X	6	2a	1A	2C#X	2a	2e	2C#X	2A	2e	2a
2D	.	2f	.	2D	2f	2d	2D	2A	2d	2f
=14	=14	=14	=14	=14	=14	=14	=14	=14	=14	=14
2AA	#	2e	2A	2AA	2e	2c#X	2AA	2A	2c#X	2e
[2D	.	2d	2F	[2D	2d	2A	[2D	2F	2A	2d
=15	=15	=15	=15	=15	=15	=15	=15	=15	=15	=15
2D]	-r6 4 2	2e	2G	2D]	2e	2B-X	2D]	2G	2B-X	2e
2C	#4|	2f#X	2A	2Cni	2f#X	2d	2C	2A	2d	2f#X
=16	=16	=16	=16	=16	=16	=16	=16	=16	=16	=16
2BB-X	6	2.g	1G	2BB-X	2.g	1d	2BB-X	2G	2d	2.g
2BBn	6	.	.	2BBn	.	.	2BBn	2G	2d	.
.	5	4fni	.	.	4fni	.	.	.	.	4fni
=17	=17	=17	=17	=17	=17	=17	=17	=17	=17	=17
2C	.	(2e	1G	2C	2e	2.c	(2C	1G	(2.c	(2e
2GG	4	2d)	.	2GG	2d	.	2GG)	.	.	2d)
.	3	.	.	.	.	4B	.	.	4B)	.
=18	=18	=18	=18	=18	=18	=18	=18	=18	=18	=18
2C	.	2c	2E	2C	2c	2G	2C	2E	2c	2c
*	*	*	*	*	*	*	*^	*	*	*
2BB-X	2	2c	2E	2BB-X	2c	2G	2B-X	2BB-X	2E	2G	2c
=19	=19	=19	=19	=19	=19	=19	=19	=19	=19	=19	=19
2AA	6	2f	2F	2AA	2f	2c	2A	2AA	2F	2c	2f
2GG	6 -	2g	2ryy	2GG	2B-X	2e	2G	2GG	2B-X	2e	2g
=20	=20	=20	=20	=20	=20	=20	=20	=20	=20	=20	=20
2FF	.	2a	2ryy	2FF	2c	2f	2F	2FF	2c	2f	2a
*	*	*	*	*	*	*	*v	*v	*	*	*
4F	6	2dd	[2A	4F	2dd	4d	(4F	[2A	(4d	2dd
4D	.	.	.	4D	.	4f	4D)	.	4f)	.
=21	=21	=21	=21	=21	=21	=21	=21	=21	=21	=21
1E	6 4	2cc	2A]	1E	2cc	1e	2E	2A]	2e	2cc
.	5 #	2b	2G#X	.	2b	.	2E	2G#X	2d	2b
=22	=22	=22	=22	=22	=22	=22	=22	=22	=22	=22
*	*	*	*	*	*	*^	*	*	*	*
2AA	.	2a	2A	2AA	2a	2c	2e/	2AA	2A	2c	2a
*	*	*	*	*	*	*v	*v	*	*	*	*
2C#X	5	2g	2A	2C#X	2gni	2e	2C#X	2A	2e	2g
=23	=23	=23	=23	=23	=23	=23	=23	=23	=23	=23
2D	.	2f	2A	2D	2f	2d	2D	2A	2d	2f
2Cni	8	2g	4ryy	2Cni	4cni	[2e	2Cni	(4c	[2e	2g
.	-7	.	4ryy	.	4B-X	.	.	4B-X)	.	.
=24	=24	=24	=24	=24	=24	=24	=24	=24	=24	=24
*	*	*	*	*	*	*	*^	*	*	*
2F	7	2a	1ryy	2FF	2A	2e]	2F	2FF	2A	2e]	2a
*	*	*	*	*	*	*	*v	*v	*	*	*
2BB-X	.	2f	.	2BB-X	2d	[2d	2BB-X	2B-X	[2d	2f
=25	=25	=25	=25	=25	=25	=25	=25	=25	=25	=25
2GG	6 5 -	1e	2ryy	2GG	2B-X	2d]	(2GG	(2B-X	(2d]	1e
2AA	#	.	4A	2AA	4ryy	2c#X	2AA)	4A	2c#X)	.
.	.	.	4G	.	4ryy	.	.	4G)	.	.
=26	=26	=26	=26	=26	=26	=26	=26	=26	=26	=26
2D	.	2d	2F	2D	2d	2A	2D	2F	2d	2d
*	*	*	*v	*v	*	*	*	*	*	*
*	*	*	*	*v	*v	*	*	*	*
==	==	==	==	==	==	==	==	==
*-	*-	*-	*-	*-	*-	*-	*-	*-
!!!system-decoration: {(s1,s2,s3,s4)}{(s5,s6)}{(s7,s8)}
!!!RDF**kern: i = editorial accidental
!!!RDF**kern: > = above
!!!RDF**kern: < = below
!!!AGN: chorale
!!!EED: Derek Remeš
!!!EED2: Victor Phan
!!!END: 2023/11/28
!!!ENC: Wolfgang Drescher
!!!EEV: 2023/12/08
!!!title: @{ONM}. @{OTL}
!!!verovio: mnumInterval 1